X:1
T:Title
%%score { 1 | 2 }
L:1/8
M:4/4
K:Bb
V:1 treble nm="Grand Piano"
V:2 bass 
V:1
 z4 z2 z[Q:1/4=90] [DF] | [DB][DA][DG][DF] [B,D] [DF]2 [DF] | [DG][DF][DG][DB] A3 F | cBAG E A2 G | %4
 AGFE D3 [DF] | [DB][DA][DG][DF] [B,D] [DF]2 [DF] | [DB][DF][EG][F_A] G3 G | cBAG GF=EF | %8
[M:7/8] [=EG][Ec][_EA] [EF] [DB]3 |[M:1/8] [DF] |[M:4/4] [Fd][=E_d][Ge][F=d] [EG]2 [E^F][EG] | %11
[M:7/8] c=Bd c [DF]3 |[M:1/8] [DB] |[M:7/8] BAc BB A2 |[M:1/8] G |[M:7/8] AGF<[Ge] [Fd]3 | %16
[M:1/8] [DF] |[M:4/4] [Fd][=E_d][Ge][F=d] [EG]2 [E^F][EG] |[M:7/8] c=Bd c [DF]3 |[M:1/8] [DF] | %20
[M:17/16] GABGFBe3/2d[Q:1/4=87][Q:1/4=84][Q:1/4=82][Q:1/4=79][Q:1/4=76][Q:1/4=73][Q:1/4=70] | %21
[M:15/16] [=Ec]/.[EG] z/ [_EF][Ec]3/2 [DB]3 |] %22
V:2
 z4 z2 z [B,,B,] | [B,,F,][B,,F,][B,,B,][B,,B,] [B,,F,] [B,,B,]2 [B,,B,] | %2
 [B,,B,][B,,B,][B,,B,][B,,B,] [F,CE]3 [F,A,E] | [F,A,E][F,CE][F,CE][F,B,E] [F,A,] [F,CE]2 [F,A,E] | %4
 [F,CE][F,A,E][F,B,D][F,A,C] [B,,F,B,]3 [B,,B,] | %5
 [B,,F,][B,,F,][B,,B,][B,,B,] [B,,F,] [B,,B,]2 [B,,B,] | %6
 [B,,F,][B,,B,][B,,B,][B,,B,] [E,B,E]3 [E,B,E] | %7
 [E,G,E][E,G,E][=E,B,_D][E,B,D] [F,B,=D][F,B,D][G,B,_D][F,B,=D] | %8
[M:7/8] [C,B,][C,B,][F,A,] [F,C] [B,,B,]3 |[M:1/8] [B,,B,] | %10
[M:4/4] [B,,B,][B,,B,][B,,B,][B,,B,] [C,B,]2 [C,B,][C,B,] | %11
[M:7/8] [F,A,E][F,_A,D][F,=A,F] [F,A,E] [B,,B,]3 |[M:1/8] [B,,B,] | %13
[M:7/8] [F,CE][F,CE][F,A,E] [F,DF][F,DF] [F,CE]2 |[M:1/8] [F,B,E] | %15
[M:7/8] [F,CF][F,B,E][F,A,E]<[F,A,] [B,,B,]3 |[M:1/8] [B,,B,] | %17
[M:4/4] [B,,B,][B,,B,][B,,B,][B,,B,] [C,B,]2 [C,B,][C,B,] | %18
[M:7/8] [F,A,E][F,_A,D][F,=A,F] [F,A,E] [B,,B,]3 |[M:1/8] [B,,B,] | %20
[M:17/16] [E,B,E][E,B,E][=E,G,_D][E,B,D][F,B,=D][F,B,D][K:treble][G,=B,G]3/2[G,B,F] | %21
[M:15/16][K:bass] [C,B,]/.[C,B,] z/ [F,A,][F,A,]3/2 [B,,B,]3 |] %22

